22x22/actions/smiley-shape.svg

<svg xmlns="http://www.w3.org/2000/svg" viewBox="0 0 22 22">
  <defs id="defs3051">
    <style type="text/css" id="current-color-scheme">
      .ColorScheme-Text {
        color:#5d656b;
      }
      </style>
  </defs>
 <path 
     style="fill:currentColor;fill-opacity:1;stroke:none" 
     d="M 11 3 C 6.581722 3 3 6.581722 3 11 C 3 15.418278 6.581722 19 11 19 C 15.418278 19 19 15.418278 19 11 C 19 6.581722 15.418278 3 11 3 z M 8 7 C 8.554 7 9 7.446 9 8 C 9 8.554 8.554 9 8 9 C 7.446 9 7 8.554 7 8 C 7 7.446 7.446 7 8 7 z M 14 7 C 14.554 7 15 7.446 15 8 C 15 8.554 14.554 9 14 9 C 13.446 9 13 8.554 13 8 C 13 7.446 13.446 7 14 7 z M 7.15625 13 L 14.84375 13 C 14.400461 14.72689 12.868958 16 11 16 C 9.131042 16 7.599539 14.72689 7.15625 13 z "
	 class="ColorScheme-Text"
     />
</svg>

<svg xmlns="http://www.w3.org/2000/svg" viewBox="0 0 22 22"><path style="fill:currentColor;fill-opacity:1;stroke:none;color:#5d656b" d="M11 3a8 8 0 1 0 0 16 8 8 0 0 0 0-16zM8 7c.554 0 1 .446 1 1s-.446 1-1 1-1-.446-1-1 .446-1 1-1zm6 0c.554 0 1 .446 1 1s-.446 1-1 1-1-.446-1-1 .446-1 1-1zm-6.844 6h7.688c-.444 1.727-1.975 3-3.844 3-1.869 0-3.4-1.273-3.844-3z"/></svg>
